X:698
T:Mrs. Garden of Troup
R:Strathspey
C:Robert Petrie
B:The Athole Collection
M:C
L:1/8
K:F
C|~F>G F<d c<F d>F|E<C C>F E/F/G/E/ C>E|~F>G F<d c<F A>f|
c>f a/g/f/e/ ~f2f:|
c|f>ca>c b>ca>c|A>f b/a/g/f/ e<g ~g>a|~f>ca>c b>ca>c|b/a/g/f/ e/f/g/ ~f2 f>c|
~f>ca>c b>ca>c|A>f b/a/g/f/ e<g gf/e/|d>B d<f c>A c<f|c>f a/g/f/e/ ~f2f||
"Last time:"
|c>f a/g/f/e/ g/f/e/d/ d/B/A/G/|F8||

